swiss/communes/0161.svg

<?xml version="1.0" encoding="UTF-8" standalone="no"?>
<!-- Created with Inkscape (http://www.inkscape.org/) -->
<svg
   xmlns:svg="http://www.w3.org/2000/svg"
   xmlns="http://www.w3.org/2000/svg"
   version="1.0"
   width="215.00432"
   height="251.83728"
   id="svg2780">
  <defs
     id="defs2782" />
  <g
     transform="translate(-31.151557,-809.59567)"
     id="layer1">
    <path
       d="M 32.151557,810.59568 L 36.024347,973.28043 C 38.790637,1089.4838 238.51678,1089.4838 241.28307,973.28043 L 245.15588,810.59568 L 32.151557,810.59568 z"
       id="path4270"
       style="fill:#2469c0;fill-opacity:1;fill-rule:evenodd;stroke:none;stroke-width:2;stroke-linecap:butt;stroke-miterlimit:4;stroke-dashoffset:0;stroke-opacity:1" />
    <path
       d="M 32.151557,810.58462 L 36.012726,973.27631 C 38.359412,1071.8539 182.43883,1086.8059 227.78411,1018.1326 L 32.151557,810.58462 z"
       id="path6609"
       style="fill:#ffffff;fill-opacity:1;fill-rule:evenodd;stroke:#000000;stroke-width:1pt;stroke-linecap:butt;stroke-linejoin:miter;stroke-opacity:1" />
    <path
       d="M 33.65625,69.59375 L 35.1875,134.25 L 149.625,255.625 C 166.14591,254.2448 182.26563,249.75754 196.28125,242.125 L 33.65625,69.59375 z"
       transform="translate(0,804.33069)"
       id="path6611"
       style="fill:#c43323;fill-opacity:1;fill-rule:evenodd;stroke:#000000;stroke-width:1pt;stroke-linecap:butt;stroke-linejoin:miter;stroke-opacity:1" />
    <path
       d="M 181.62309,124.07598 L 171.27422,91.386486 L 137.78985,98.768852 L 160.92535,73.461716 L 137.78985,48.154582 L 171.27422,55.536945 L 181.62309,22.847446 L 191.97196,55.536945 L 225.45633,48.15458 L 202.32084,73.461716 L 225.45634,98.768849 L 191.97196,91.386486 L 181.62309,124.07598 z"
       transform="translate(-1.1435698,804.27045)"
       id="path3975"
       style="fill:#efd905;fill-opacity:1;fill-rule:evenodd;stroke:#000000;stroke-width:0.99921262;stroke-linecap:butt;stroke-linejoin:miter;stroke-miterlimit:4;stroke-dasharray:none;stroke-opacity:1" />
    <path
       d="M 32.151557,810.59568 L 36.024347,973.28043 C 38.790637,1089.4838 238.51678,1089.4838 241.28307,973.28043 L 245.15588,810.59568 L 32.151557,810.59568 z"
       id="path6617"
       style="fill:none;fill-opacity:1;fill-rule:evenodd;stroke:#000000;stroke-width:2;stroke-linecap:butt;stroke-miterlimit:4;stroke-dashoffset:0;stroke-opacity:1" />
  </g>
</svg>

<svg xmlns="http://www.w3.org/2000/svg" version="1.0" width="215.004" height="251.837"><path d="m32.152 810.596 3.872 162.684c2.767 116.204 202.493 116.204 205.26 0l3.872-162.684H32.152z" style="fill:#2469c0;fill-opacity:1;fill-rule:evenodd;stroke:none;stroke-width:2;stroke-linecap:butt;stroke-miterlimit:4;stroke-dashoffset:0;stroke-opacity:1" transform="translate(-31.152 -809.596)"/><path d="m32.152 810.585 3.86 162.691c2.347 98.578 146.427 113.53 191.772 44.857L32.152 810.585z" style="fill:#fff;fill-opacity:1;fill-rule:evenodd;stroke:#000;stroke-width:1pt;stroke-linecap:butt;stroke-linejoin:miter;stroke-opacity:1" transform="translate(-31.152 -809.596)"/><path d="m33.656 69.594 1.532 64.656 114.437 121.375c16.52-1.38 32.64-5.867 46.656-13.5L33.656 69.594z" transform="translate(-31.152 -5.265)" style="fill:#c43323;fill-opacity:1;fill-rule:evenodd;stroke:#000;stroke-width:1pt;stroke-linecap:butt;stroke-linejoin:miter;stroke-opacity:1"/><path d="m181.623 124.076-10.349-32.69-33.484 7.383 23.135-25.307-23.135-25.307 33.484 7.382 10.35-32.69 10.348 32.69 33.484-7.382-23.135 25.307 23.135 25.307-33.484-7.383-10.349 32.69z" transform="translate(-32.295 -5.325)" style="fill:#efd905;fill-opacity:1;fill-rule:evenodd;stroke:#000;stroke-width:.99921262;stroke-linecap:butt;stroke-linejoin:miter;stroke-miterlimit:4;stroke-dasharray:none;stroke-opacity:1"/><path d="m32.152 810.596 3.872 162.684c2.767 116.204 202.493 116.204 205.26 0l3.872-162.684H32.152z" style="fill:none;fill-opacity:1;fill-rule:evenodd;stroke:#000;stroke-width:2;stroke-linecap:butt;stroke-miterlimit:4;stroke-dashoffset:0;stroke-opacity:1" transform="translate(-31.152 -809.596)"/></svg>
